X:22
T:The King's Jig
T:In WInchester Was A Wedding
M:9/8
L:1/8
R:(Slip) jig
S:Chappell's Popular Music of the Olden Times
O:English
Z:Eric Root
N:Transposed from B-flat
K:A
A,|CDEF2E ECA,|CDEA2FB2B,|CDEF2E ECE|FGA BGEA2A,|
CDEF2E ECA,|CDE AGFB2B,|CDEF2E ECE|FGA BGEA2|
|:f|efc e2AB2F|BcdF2BG2E|AFD FAF BGc|FGAA2GA2:|
